src/assets/favorite.svg

<?xml version="1.0" encoding="UTF-8" standalone="no"?>
<svg
   xmlns:dc="http://purl.org/dc/elements/1.1/"
   xmlns:cc="http://creativecommons.org/ns#"
   xmlns:rdf="http://www.w3.org/1999/02/22-rdf-syntax-ns#"
   xmlns:svg="http://www.w3.org/2000/svg"
   xmlns="http://www.w3.org/2000/svg"
   width="24mm"
   height="21.636751mm"
   viewBox="0 0 24 21.636751"
   version="1.1"
   id="svg8">
  <defs
     id="defs2" />
  <metadata
     id="metadata5">
    <rdf:RDF>
      <cc:Work
         rdf:about="">
        <dc:format>image/svg+xml</dc:format>
        <dc:type
           rdf:resource="http://purl.org/dc/dcmitype/StillImage" />
        <dc:title></dc:title>
      </cc:Work>
    </rdf:RDF>
  </metadata>
  <g
     id="layer1"
     transform="matrix(0.42569423,0,0,0.42569423,28.132835,-39.348715)">
    <path
       style="fill:#000000;stroke-width:0.26458335"
       d="M -39.797224,142.80896 C -42.177532,141.50918 -53.43402,130.42376 -57.28363,125.58832 -64.36406,116.69467 -67.00935,110.08827 -65.8076,104.3004 -64.70293,98.980112 -60.23034,94.271082 -54.94633,92.864972 -53.03146,92.355412 -49.58121,92.367782 -47.78645,92.890642 -45.080362,93.678992 -41.246766,96.159882 -38.827577,98.688322 L -37.920371,99.636502 -36.578618,98.338972 C -33.687294,95.542942 -30.388435,93.461502 -27.701784,92.738062 -27.059257,92.565042 -25.499522,92.428402 -24.235705,92.434412 -16.347087,92.471892 -9.7265667,99.252302 -9.7084877,107.31247 -9.6933167,114.07701 -15.692881,123.60798 -26.948619,134.70033 -31.770565,139.45228 -35.386562,142.66194 -36.316488,143.01549 -37.35453,143.41016 -38.859819,143.32084 -39.797224,142.80896 Z M -37.304786,140.02146 C -35.425382,138.97641 -26.176943,129.84091 -21.84569,124.75115 -16.788706,118.80857 -13.641228,113.22907 -12.880003,108.8578 -12.093111,104.33914 -14.80893,99.166582 -19.156883,96.902832 -22.179941,95.328882 -24.445676,95.049392 -27.224436,95.907662 -29.389215,96.576292 -31.633154,98.028492 -34.090887,100.35136 -36.253475,102.3953 -36.868155,102.79073 -37.882702,102.79073 -38.895024,102.79073 -39.511903,102.3953 -41.646212,100.37825 -45.910813,96.347952 -49.50957,94.880642 -53.24963,95.647252 -58.13671,96.648952 -62.009,100.62367 -62.91558,105.56886 -63.85747,110.70668 -59.91092,118.20294 -51.17645,127.86673 -47.45822,131.98056 -38.614069,140.38642 -38.039973,140.35219 -37.953473,140.34704 -37.62264,140.19821 -37.304786,140.02146 Z"
       id="path826" />
  </g>
</svg>

<svg xmlns="http://www.w3.org/2000/svg" width="24mm" height="81.777" viewBox="0 0 24 21.637"><path style="fill:#000;stroke-width:.26458335" d="M-39.797 142.809c-2.38-1.3-13.637-12.385-17.487-17.22-7.08-8.894-9.725-15.5-8.524-21.289 1.105-5.32 5.578-10.029 10.862-11.435 1.915-.51 5.365-.497 7.16.026 2.706.788 6.54 3.269 8.958 5.797l.908.949 1.341-1.298c2.892-2.796 6.19-4.877 8.877-5.6.643-.174 2.202-.31 3.466-.305 7.889.038 14.51 6.818 14.528 14.878.015 6.765-5.985 16.296-17.24 27.388-4.823 4.752-8.439 7.962-9.368 8.315-1.039.395-2.544.306-3.481-.206zm2.492-2.788c1.88-1.045 11.128-10.18 15.46-15.27 5.056-5.942 8.204-11.522 8.965-15.893.787-4.519-1.929-9.691-6.277-11.955-3.023-1.574-5.289-1.854-8.067-.995-2.165.668-4.41 2.12-6.867 4.443-2.162 2.044-2.777 2.44-3.792 2.44-1.012 0-1.629-.396-3.763-2.413-4.265-4.03-7.864-5.497-11.604-4.73-4.887 1.001-8.759 4.976-9.666 9.92-.941 5.139 3.005 12.635 11.74 22.299 3.718 4.114 12.562 12.52 13.136 12.485.087-.005.417-.154.735-.33z" transform="matrix(.4257 0 0 .4257 28.133 -39.349)"/></svg>
